src/assets/images/googleIcon.svg

<svg width="100" height="100" viewBox="0 0 100 100" fill="none" xmlns="http://www.w3.org/2000/svg">
<path d="M90 2H10C5.6 2 2 5.6 2 10V90C2 94.4 5.6 98 10 98H90C94.4 98 98 94.4 98 90V10C98 5.6 94.4 2 90 2Z" fill="white"/>
<path d="M40.5999 21C33.1999 23.6 26.7999 29.2 23.1999 36.2C21.9999 38.6 20.9999 41.2 20.5999 44C19.1999 50.6 20.1999 57.8 23.1999 63.8C25.1999 67.8 27.9999 71.2 31.5999 74C34.7999 76.6 38.5999 78.6 42.7999 79.6C47.9999 81 53.3999 81 58.3999 79.8C62.9999 78.8 67.3999 76.6 70.9999 73.2C74.7999 69.8 77.3999 65.4 78.7999 60.4C80.3999 55.2 80.5998 49.6 79.5998 44.2C69.9999 44.2 60.3999 44.2 50.7999 44.2C50.7999 48.2 50.7999 52.2 50.7999 56.2C56.3999 56.2 61.9999 56.2 67.3999 56.2C66.7999 60 64.3999 63.6 61.1999 65.6C59.1999 67 56.7999 67.8 54.3999 68.2C51.9999 68.6 49.3999 68.6 46.9999 68.2C44.5999 67.8 42.1999 66.6 40.1999 65.2C36.9999 63 34.3999 59.6 33.1999 55.8C31.7999 52 31.7999 47.8 33.1999 43.8C34.1999 41.2 35.5999 38.6 37.5999 36.6C39.9999 34 43.1999 32.2 46.7999 31.6C49.7999 31 52.7999 31 55.7999 32C58.1999 32.8 60.5999 34.2 62.3999 35.8C64.1999 34 66.1999 32 67.9999 30.2C68.9999 29.2 69.9999 28.2 70.9999 27.2C68.1999 24.6 64.7999 22.4 61.1999 21C54.5999 18.8 47.1999 18.8 40.5999 21Z" fill="white"/>
<path d="M40.5997 21C47.1997 18.8 54.5997 18.8 61.1997 21.2C64.7997 22.6 68.1997 24.6 70.9997 27.4C69.9997 28.4 68.9997 29.4 67.9997 30.4C66.1997 32.2 64.1997 34.2 62.3997 36C60.5997 34.2 58.1997 32.8 55.7997 32.2C52.9997 31.4 49.7997 31.2 46.7997 31.8C43.3997 32.6 40.1997 34.4 37.5997 36.8C35.5997 38.8 33.9997 41.4 33.1997 44C29.7997 41.4 26.5997 38.8 23.1997 36.2C26.7997 29.2 33.1997 23.6 40.5997 21Z" fill="#EA4335"/>
<path d="M20.5999 44C21.1999 41.4 21.9999 38.8 23.1999 36.2C26.5999 38.8 29.7999 41.4 33.1999 44C31.7999 47.8 31.7999 52 33.1999 56C29.7999 58.6 26.5999 61.1999 23.1999 63.7999C20.1999 57.5999 19.1999 50.6 20.5999 44Z" fill="#FBBC05"/>
<path d="M50.5996 44.2C60.1996 44.2 69.7996 44.2 79.3996 44.2C80.3996 49.6 80.1996 55.2 78.5996 60.4C77.1996 65.2 74.5996 69.5999 70.7996 73.1999C67.5996 70.5999 64.3996 68.1999 60.9996 65.5999C64.1996 63.3999 66.3996 60 67.1996 56.2C61.5996 56.2 55.9996 56.2 50.5996 56.2C50.5996 52.2 50.5996 48.2 50.5996 44.2Z" fill="#4285F4"/>
<path d="M23.1997 63.8C26.5997 61.2 29.7997 58.6 33.1997 56C34.3997 59.8 36.9997 63.2 40.1997 65.4C42.1997 66.8 44.5997 67.8 46.9997 68.4C49.3997 68.8 51.7997 68.8 54.3997 68.4C56.7997 68 59.1997 67 61.1997 65.8C64.3997 68.4 67.5997 70.8 70.9997 73.4C67.3997 76.6 63.1997 78.8 58.3997 80C53.1997 81.2 47.7997 81.2 42.7997 79.8C38.7997 78.8 34.9997 76.8 31.5997 74.2C28.1997 71.2 25.1997 67.6 23.1997 63.8Z" fill="#34A853"/>
</svg>

<svg width="100" height="100" fill="none" xmlns="http://www.w3.org/2000/svg"><path d="M90 2H10c-4.4 0-8 3.6-8 8v80c0 4.4 3.6 8 8 8h80c4.4 0 8-3.6 8-8V10c0-4.4-3.6-8-8-8z" fill="#fff"/><path d="M40.6 21c-7.4 2.6-13.8 8.2-17.4 15.2-1.2 2.4-2.2 5-2.6 7.8-1.4 6.6-.4 13.8 2.6 19.8 2 4 4.8 7.4 8.4 10.2 3.2 2.6 7 4.6 11.2 5.6 5.2 1.4 10.6 1.4 15.6.2 4.6-1 9-3.2 12.6-6.6 3.8-3.4 6.4-7.8 7.8-12.8 1.6-5.2 1.8-10.8.8-16.2H50.8v12h16.6c-.6 3.8-3 7.4-6.2 9.4-2 1.4-4.4 2.2-6.8 2.6-2.4.4-5 .4-7.4 0-2.4-.4-4.8-1.6-6.8-3-3.2-2.2-5.8-5.6-7-9.4-1.4-3.8-1.4-8 0-12 1-2.6 2.4-5.2 4.4-7.2 2.4-2.6 5.6-4.4 9.2-5 3-.6 6-.6 9 .4 2.4.8 4.8 2.2 6.6 3.8l5.6-5.6 3-3c-2.8-2.6-6.2-4.8-9.8-6.2-6.6-2.2-14-2.2-20.6 0z" fill="#fff"/><path d="M40.6 21c6.6-2.2 14-2.2 20.6.2 3.6 1.4 7 3.4 9.8 6.2l-3 3-5.6 5.6c-1.8-1.8-4.2-3.2-6.6-3.8-2.8-.8-6-1-9-.4-3.4.8-6.6 2.6-9.2 5-2 2-3.6 4.6-4.4 7.2-3.4-2.6-6.6-5.2-10-7.8 3.6-7 10-12.6 17.4-15.2z" fill="#EA4335"/><path d="M20.6 44c.6-2.6 1.4-5.2 2.6-7.8 3.4 2.6 6.6 5.2 10 7.8-1.4 3.8-1.4 8 0 12-3.4 2.6-6.6 5.2-10 7.8-3-6.2-4-13.2-2.6-19.8z" fill="#FBBC05"/><path d="M50.6 44.2h28.8c1 5.4.8 11-.8 16.2-1.4 4.8-4 9.2-7.8 12.8-3.2-2.6-6.4-5-9.8-7.6 3.2-2.2 5.4-5.6 6.2-9.4H50.6v-12z" fill="#4285F4"/><path d="M23.2 63.8c3.4-2.6 6.6-5.2 10-7.8 1.2 3.8 3.8 7.2 7 9.4 2 1.4 4.4 2.4 6.8 3 2.4.4 4.8.4 7.4 0 2.4-.4 4.8-1.4 6.8-2.6 3.2 2.6 6.4 5 9.8 7.6-3.6 3.2-7.8 5.4-12.6 6.6-5.2 1.2-10.6 1.2-15.6-.2-4-1-7.8-3-11.2-5.6-3.4-3-6.4-6.6-8.4-10.4z" fill="#34A853"/></svg>
